packages/forma-36-website/static/icons/css.svg

<svg height="23" viewBox="0 0 65 23" width="65" xmlns="http://www.w3.org/2000/svg"><path d="m462.222222 676v2.547781c-1.236955 0-1.955187.301101-1.855433 1.459184l.299264 3.427923c.23941 2.594105-1.077348 3.566894-3.092388 3.914318 2.134745.370587 3.331798 1.297053 3.092388 3.914318l-.299264 3.427924c-.099754 1.158082.638429 1.459184 1.855433 1.459184v2.547781c-3.670964 0-5.047575-1.158083-4.768263-4.261743l.299264-3.335277c.159607-1.737123-1.037446-2.269841-2.753223-2.269841v-2.964691c1.695826 0 2.91283-.532718 2.753223-2.269841l-.299264-3.312116c-.299263-3.149983 1.097299-4.284904 4.768263-4.284904zm10.925354 3.095238c2.416703 0 3.963392.714286 5.36508 1.938776l-1.933362 2.474489c-.918347-.790816-2.03003-1.30102-3.33505-1.30102-2.126698 0-3.81839 1.811224-3.81839 6.147959 0 4.260204 1.595024 6.071429 3.890891 6.071429 1.667525 0 2.68254-.790817 3.625054-1.581633l1.78836 2.423469c-1.232519 1.326531-3.045045 2.39796-5.630917 2.39796-4.5434 0-7.781782-3.239796-7.781782-9.311225 0-5.918367 3.407551-9.260204 7.830116-9.260204zm21.058773 12.959184c0 3.316326-2.532973 5.612245-6.802843 5.612245-3.160186 0-5.210689-1.096939-6.609855-2.551021l2.002255-2.346939c1.230302 1.14796 2.725962 1.785715 4.511106 1.785715 1.664525 0 2.774209-.790817 2.774209-2.168368 0-1.27551-.699583-1.887755-3.015445-2.627551-3.93214-1.27551-5.403677-2.831632-5.403677-5.510204 0-3.265306 2.822456-5.153061 6.296249-5.153061 2.557097 0 4.535229.841837 5.982642 2.295918l-1.857514 2.270409c-1.133807-.994898-2.484726-1.479592-3.835646-1.479592-1.49566 0-2.484726.586734-2.484726 1.734694 0 1.122449.74783 1.581632 3.401422 2.448979 3.184309 1.020408 5.041823 2.44898 5.041823 5.688776zm15.476191 0c0 3.316326-2.532974 5.612245-6.802844 5.612245-3.160186 0-5.210688-1.096939-6.609855-2.551021l2.002256-2.346939c1.230301 1.14796 2.725962 1.785715 4.511105 1.785715 1.664526 0 2.774209-.790817 2.774209-2.168368 0-1.27551-.699583-1.887755-3.015445-2.627551-3.93214-1.27551-5.403677-2.831632-5.403677-5.510204 0-3.265306 2.822457-5.153061 6.296249-5.153061 2.557097 0 4.535229.841837 5.982643 2.295918l-1.857514 2.270409c-1.133808-.994898-2.484727-1.479592-3.835646-1.479592-1.495661 0-2.484727.586734-2.484727 1.734694 0 1.122449.747831 1.581632 3.401422 2.448979 3.18431 1.020408 5.041824 2.44898 5.041824 5.688776zm3.095238-16.054422c3.670964 0 5.047575 1.158082 4.768263 4.261743l-.299264 3.335277c-.159607 1.737123 1.057397 2.269841 2.753223 2.269841v2.964691c-1.675875 0-2.91283.532718-2.753223 2.269841l.299264 3.312115c.299263 3.149984-1.097299 4.284905-4.768263 4.284905v-2.547781c1.236955 0 1.955187-.301102 1.855433-1.459184l-.299264-3.427924c-.23941-2.594104 1.077348-3.566893 3.112339-3.914318-2.134745-.370586-3.351749-1.297052-3.112339-3.914318l.299264-3.427923c.099754-1.158083-.638429-1.459184-1.855433-1.459184z" opacity=".12" transform="translate(-455 -676)"/></svg>

<?xml version="1.0" encoding="UTF-8"?>
<svg width="65px" height="23px" viewBox="0 0 65 23" version="1.1"
    xmlns="http://www.w3.org/2000/svg"
    xmlns:xlink="http://www.w3.org/1999/xlink">
    <g id="Page-1" stroke="none" stroke-width="1" fill="none" fill-rule="evenodd" opacity="0.12">
        <g id="Artboard" transform="translate(-455.000000, -676.000000)" fill="#000000" fill-rule="nonzero">
            <path d="M462.222222,676 L462.222222,678.547781 C460.985267,678.547781 460.267035,678.848882 460.366789,680.006965 L460.666053,683.434888 C460.905463,686.028993 459.588705,687.001782 457.573665,687.349206 C459.70841,687.719793 460.905463,688.646259 460.666053,691.263524 L460.366789,694.691448 C460.267035,695.84953 461.005218,696.150632 462.222222,696.150632 L462.222222,698.698413 C458.551258,698.698413 457.174647,697.54033 457.453959,694.43667 L457.753223,691.101393 C457.91283,689.36427 456.715777,688.831552 455,688.831552 L455,685.866861 C456.695826,685.866861 457.91283,685.334143 457.753223,683.59702 L457.453959,680.284904 C457.154696,677.134921 458.551258,676 462.222222,676 Z M473.147576,679.095238 C475.564279,679.095238 477.110968,679.809524 478.512656,681.034014 L476.579294,683.508503 C475.660947,682.717687 474.549264,682.207483 473.244244,682.207483 C471.117546,682.207483 469.425854,684.018707 469.425854,688.355442 C469.425854,692.615646 471.020878,694.426871 473.316745,694.426871 C474.98427,694.426871 475.999285,693.636054 476.941799,692.845238 L478.730159,695.268707 C477.49764,696.595238 475.685114,697.666667 473.099242,697.666667 C468.555842,697.666667 465.31746,694.426871 465.31746,688.355442 C465.31746,682.437075 468.725011,679.095238 473.147576,679.095238 Z M494.206349,692.054422 C494.206349,695.370748 491.673376,697.666667 487.403506,697.666667 C484.24332,697.666667 482.192817,696.569728 480.793651,695.115646 L482.795906,692.768707 C484.026208,693.916667 485.521868,694.554422 487.307012,694.554422 C488.971537,694.554422 490.081221,693.763605 490.081221,692.386054 C490.081221,691.110544 489.381638,690.498299 487.065776,689.758503 C483.133636,688.482993 481.662099,686.926871 481.662099,684.248299 C481.662099,680.982993 484.484555,679.095238 487.958348,679.095238 C490.515445,679.095238 492.493577,679.937075 493.94099,681.391156 L492.083476,683.661565 C490.949669,682.666667 489.59875,682.181973 488.24783,682.181973 C486.75217,682.181973 485.763104,682.768707 485.763104,683.916667 C485.763104,685.039116 486.510934,685.498299 489.164526,686.365646 C492.348835,687.386054 494.206349,688.814626 494.206349,692.054422 Z M509.68254,692.054422 C509.68254,695.370748 507.149566,697.666667 502.879696,697.666667 C499.71951,697.666667 497.669008,696.569728 496.269841,695.115646 L498.272097,692.768707 C499.502398,693.916667 500.998059,694.554422 502.783202,694.554422 C504.447728,694.554422 505.557411,693.763605 505.557411,692.386054 C505.557411,691.110544 504.857828,690.498299 502.541966,689.758503 C498.609826,688.482993 497.138289,686.926871 497.138289,684.248299 C497.138289,680.982993 499.960746,679.095238 503.434538,679.095238 C505.991635,679.095238 507.969767,679.937075 509.417181,681.391156 L507.559667,683.661565 C506.425859,682.666667 505.07494,682.181973 503.724021,682.181973 C502.22836,682.181973 501.239294,682.768707 501.239294,683.916667 C501.239294,685.039116 501.987125,685.498299 504.640716,686.365646 C507.825026,687.386054 509.68254,688.814626 509.68254,692.054422 Z M512.777778,676 C516.448742,676 517.825353,677.158082 517.546041,680.261743 L517.246777,683.59702 C517.08717,685.334143 518.304174,685.866861 520,685.866861 L520,688.831552 C518.324125,688.831552 517.08717,689.36427 517.246777,691.101393 L517.546041,694.413508 C517.845304,697.563492 516.448742,698.698413 512.777778,698.698413 L512.777778,696.150632 C514.014733,696.150632 514.732965,695.84953 514.633211,694.691448 L514.333947,691.263524 C514.094537,688.66942 515.411295,687.696631 517.446286,687.349206 C515.311541,686.97862 514.094537,686.052154 514.333947,683.434888 L514.633211,680.006965 C514.732965,678.848882 513.994782,678.547781 512.777778,678.547781 L512.777778,676 Z" id="{CSS}"></path>
        </g>
    </g>
</svg>
